**kern	**kern	**dynam
*part1	*part1	*part1
*staff2	*staff1	*
*I"Piano	*	*
*clefF4	*clefG2	*
*k[b-e-a-]	*k[b-e-a-]	*
=1	=1	=1
8BB-L 8B-	8r	p
8E-	(16gLL 16gg	.
.	16ee-JJ)	.
8BB- 8B-	8r	.
8E-J	(16gLL 16gg	.
.	16ee-JJ)	.
=	=	=
8BB-L 8B-	8r	.
8A-	(16fLL 16ff	.
.	16ddJJ)	.
8BB- 8B-	8r	.
8A-J	(16fLL 16ff	.
.	16ddJJ)	.
=	=	=
*^	*	*
4G	4E-	4ee-	.
*v	*v	*	*
4EE- 4E-	4g 4b- 4gg	f
=	=	=
4EE- 4E-	4g 4b- 4ee-	.
4r	8r	.
.	(8b-	p
=	=	=
4A-	4e- 4cc	.
4G	4e- 4b-	.
=	=	=
4D 4B-	4f 4a-	.
4E- 4B-	4e- 4g	.
=	=	=
*^	*	*
4B-	4A-	4d 4f	.
*v	*v	*	*
8GL	8e-L	.
8E-J	8gJ)	.
=	=	=
(4B-	(4e- 4g	.
4BB-)	4d) 4f	.
=	=	=
*-	*-	*-
!!!system-decoration: {(s1,s2)}
